X: 130171
T: Monaghan Twig
S: J.Kelly - P.O'Brien
Z: B.Black
R: reel
M: 4/4
L: 1/8
K: Amix
ed | cAAB cded | cAAG E2 ed | cAAB cded | BAGB d2 ed |
cAAB cded | cAAG E2 ed | cAAB cded | BAGB d3 A ||
Bdef gfed | cdef e2 cA | (3Bcd ef gfed | BAGB d3 A |
cded cded | cdef g2 ge | cA A2 ecef | gfge dged ||
